X: 6
T: The Keel Row
R: strathspey
M: 4/4
L: 1/8
K: Dmaj
|: a/g/ | f2 d>f g2 e>g | f2 d>f e>c A2 |
f2 d>f g2 e>g | f>de>c d2 f/a/ :|
|: a/g/ | fafa b2 a>g | f2 e>d f>d A2 |
fafa b2 a>g |1 f2 e2 d2 f/a/ :|2 f2 e2 d3 ||


Tune 3637	Setting 21701

